X: 1
T: Piano Sonata No. 1 in C major, K 279 (189d), mvmt. 1
C: Wolfgang Amadeus Mozart
%%abc-version 2.0
%%abcx-abcm2ps-target-version 5.9.1 (29 Sep 2008)
%%abc-creator hum2abc beta
%%abcx-conversion-date 2021/01/14 17:01:31
%%abc-copyright 2018 Craig Stuart Sapp
%%abc-edited-by Craig Stuart Sapp
%%abc-edited-by Craig Stuart Sapp
%%abcx-initial-encoding-date 2009/10/15
%%gracespace 0 6 6
%%humdrum-veritas 373335571
%%humdrum-veritas-data 1638175547
%%linebreak <none>
%%barnumbers 0
L: 1/16
M: C
N: Derived from sonata01-1.krn
Q: "Allegro." 1/4=120
%%staves {1 2}
V: 1 clef=treble
V: 2 clef=bass
K: C
[V:1] !arpeggio![E4G4c4]z2 cB dced fegf | 
[V:2] C,CB,C C,2 z2z8 | 
[V:1] !arpeggio![A4d4f4a4]gfed !mordent!cBce dfBd | 
[V:2] [F,,4F,4]z4z2 E,2F,2G,2 | 
[V:1] !arpeggio![E4G4c4]z2 cB dced fegf | 
[V:2] C,CB,C C,2 z2z8 | 
[V:1] !arpeggio![A4d4f4a4]gfed !mordent!cBce dfBd | 
[V:2] [F,,4F,4]z4z2 E,2F,2G,2[K:clef=treble] | 
[V:1] c2{/d//}cB c2.e2^c4d2 z2 | 
[V:2] CGEG CGEG B,GDG B,GDG | 
[V:1] z2 {/e//} d^c d2.f2^d4e2 z2 | 
[V:2] B,GDG B,GDG CGEG CGEG | 
[V:1] z2 !turn!g2c'2._b2^g4a2 z2 | 
[V:2] CGEG CGEG CAFA CAFA | 
[V:1] {/a/=b/}c'4bagf^f4g2 z2 | 
[V:2] CAFA CAFA CGEG CGEG[K:clef=bass] | 
[V:1] z4.G.c.e.gz4.A.c.f.a | 
[V:2] .E,.G,.C.Ez4.F,.A,.C.Fz4 | 
[V:1] agfe edeff4e2 z2 | 
[V:2] z2 [G,2C2][G,2B,2][G,2D2][^G,4D4][A,2C2] z2 | 
[V:1] z4Gcegz4Acfa | 
[V:2] E,=G,CEz4F,A,CFz4 | 
[V:1] agfe edcBc4[G4_B4e4]- | 
[V:2] z2 [G,2C2][G,2B,2][G,2F2] [CE] CB,C B,,C,B,,C, | 
[V:1] [G2B2e2][A2f2] [F2A2][D2=B2] {/AB}[E4c4][G4_B4e4]- | 
[V:2] C,,2 z2z4B,CB,C B,,C,B,,C, | 
[V:1] [G2B2e2][A2f2] [F2A2][D2=B2] {/AB} !mordent!cBce !mordent!dcdf | 
[V:2] C,,2 z2z4E2G,2B,2G,2 | 
[V:1] !mordent!edeg !mordent!fefa gc'e'b c'gaf | 
[V:2] x12z2 D2 & C2G,2D2G,2E4x2 F,2 | 
[V:1] !trill!e2d2z4{/^c//}d4{/c//}d4 | 
[V:2] C2B,2x12 & G,4z4z8 | 
[V:1] {/B/d/^g/}b8-bag=f edcB | 
[V:2] z E,,^G,,B,, E,^G,B,EE,4z2 [E,2G,2] | 
[V:1] dcBc Bcdc {/B//}c4{/B//}c4 | 
[V:2] [A,,4A,4]z4z8 | 
[V:1] {/A/c/^f/}a8-a=gfe dcBA | 
[V:2] z D,,^F,,A,, D,^F,A,DD,4z2 [D,2F,2][K:clef=treble] | 
[V:1] B4.d2.d2 e2>^f2 agfe | 
[V:2] G,G^FG B,GFG CGFG CGFG | 
[V:1] d2 z2 dBdB2< e2^f agfe | 
[V:2] B,G^FG B,GFG CGFG CGFG | 
[V:1] .d2 ba g^fed !trill!c2 {/Bc} ag fedc | 
[V:2] B,4z2 ^G2A4z2 ^F2 | 
[V:1] !trill!B2 {/AB} g^f edcB !trill!A2 {/^GA} ed cBA=G | 
[V:2] =G4z2 E2C4z2 ^C2 | 
[V:1] .^F dba g^fed d^c.a.g .f.e.d.=c | 
[V:2] D4z2 ^G2A4z2 ^F2 | 
[V:1] cB.g.^f .e.d.c.BA4!trill!B3A/B/ | 
[V:2] =G4z2 E2 CG^FG DGFG | 
[V:1] c4>B4 .A2{/^G//}.A2.B2{/^A//}.B2 | 
[V:2] EG^FG DGFG CGFG DGFG | 
[V:1] {/B/d/}c4>B4 {/^G//}A4z4 | 
[V:2] EG^FG DGFG z2 [C2E2][B,2^D2][C2E2] | 
[V:1] {/B//}c4z4{/^d//}e4z4 | 
[V:2] z2 [C2E2][B,2^D2][C2E2] z2 [C2E2][B,2D2][C2E2] | 
[V:1] {/^G//} A2{/B//}c2{/^d//}e2{/^g//}a2 {/b//} c'2{/^g//}a2{/^d//}e2{/B//}c2 | 
[V:2] z16[K:clef=bass] | 
[V:1] {/B/c/}=d4cBAG!trill!A8{/G/A/} | 
[V:2] D,B,G,B, D,B,G,B, D,C^F,C D,CF,C | 
[V:1] G2.g.g gdBG A2.a.a a^fdA | 
[V:2] G,DB,D G,2 z2 ^F,DA,D F,2 z2 | 
[V:1] B2.b.b bgdB ^de.c.A Bc.A.^F | 
[V:2] G,DB,D G,2 z2[C,4E,4A,4][D,4A,4C4] | 
[V:1] .G^fgf g.d.B.G .A^gag a.f.d.A | 
[V:2] [G,2B,2] z2 G,,G,^F,G, F,2 z2 ^F,,F,E,F, | 
[V:1] .B^aba b.=g.d.B ^de.c.=A Bc.A.^F | 
[V:2] G,2 z2 G,,G,^F,G,!arpeggio![C,4E,4A,4]!arpeggio![D,4A,4C4] | 
[V:1] .Ggb.a .g.^f.e.d .c.B.A.G .^F.E.D.^C | 
[V:2] [G,4B,4]z4z8 | 
[V:1] =C8-CDED ^FEDC | 
[V:2] z4[A,,4A,4][^F,,4^F,4][D,,4D,4] | 
[V:1] [A,8C8][G,B,] G^FG .Dd^cd | 
[V:2] G,,G,^F,G, F,G,F,G,G,,4z4 | 
[V:1] .Bg^fg .dbab g2 z2z4 :|]  
[V:2] z16 :|]  
[V:1] [_B,4D4G4]z2 GD _BGdB gdBG | 
[V:2] G,,G,^F,G, G,,2 z2z8 | 
[V:1] [E4A4^c4]z2 AE cAec aecA | 
[V:2] G,,G,^F,G, G,,2 z2z8 | 
[V:1] [=F4A4d4]z2 AF dAfd afdA | 
[V:2] =F,,=F,E,F, F,,2 z2z8 | 
[V:1] [D4G4=B4]z2 GD BGdB gdBG | 
[V:2] F,,F,E,F, F,,2 z2z8 | 
[V:1] [E4G4c4]z2 GE cGec gecG | 
[V:2] E,,E,D,E, E,,2 z2z8 | 
[V:1] [D4F4_B4]z2 FD BFdB fd_ba | 
[V:2] D,,D,^C,D, D,,2 z2z8 | 
[V:1] ^g=bfb ebdbc4a2!trill!=g2 {/^fg} | 
[V:2] [E,,4E,4]z2 ^G,2 A,C=G,C ^F,C_E,C | 
[V:1] ^fa_ea daca_B4g2!trill!=f2 {/=ef} | 
[V:2] D,4z2 ^F,2 G,_B,=F,B, =E,B,D,B, | 
[V:1] =egdg cg_BgA4z4 | 
[V:2] C,4z2 E,2 F,[K:clef=treble] C_B,A, B,CDE | 
[V:1] z2 a=b .c'2.c'2c'4g2 z2 | 
[V:2] FcAc FcAc EcGc EcGc | 
[V:1] !trill!f3e/f/ g2f2^d4e2 z2 | 
[V:2] D=BGB DBGB CcGc CcGc | 
[V:1] z2 ef g2g2g4=d2 z2 | 
[V:2] CGEG CGEG B,GDG B,GDG | 
[V:1] !trill!c3B/c/ d2c2 BGcA dBec | 
[V:2] A,^FCF A,FCF[G,4G4]z4[K:clef=bass] | 
[V:1] [d4=f4][f4d'4]ecfd geaf | 
[V:2] G,,G,^F,G, A,G,F,G,G,,4z4 | 
[V:1] [e4g4][e4c'4]BGcA dBec | 
[V:2] G,,G,^F,G, A,G,F,G,G,,4z4[K:clef=treble] | 
[V:1] [d4f4][f4d'4]ecfd geaf | 
[V:2] G,G^FG AGFGG,4z4 | 
[V:1] [e4g4][e4c'4].[db]g^fg c'gec | 
[V:2] G,G^FG AGFGG,4z4[K:clef=bass] | 
[V:1] .gG^FG cGEC .GG,A,B, CDEF | 
[V:2] z G,^F,G, CG,E,C,G,,4z4 | 
[V:1] GABc de^fg ^ga.=f.d ef.d.B | 
[V:2] z16 | 
[V:1] !arpeggio![E4G4c4]z2 cB dced fegf | 
[V:2] C,CB,C C,2 z2z8 | 
[V:1] !arpeggio![A4d4f4a4]gfed !mordent!cBce dfBd | 
[V:2] [F,,4F,4]z4z2 E,2F,2G,2 | 
[V:1] !arpeggio![E4G4c4]z2 cB dced fegf | 
[V:2] C,CB,C C,2 z2z8 | 
[V:1] !arpeggio![A4d4f4a4]gfed !mordent!cBce dfBd | 
[V:2] [F,,4F,4]z4z2 E,2F,2G,2[K:clef=treble] | 
[V:1] c2{/d//}cB c2g2f4e2 z2 | 
[V:2] CGEG CGEG _B,GCG B,GCG | 
[V:1] z2 .e2c'2e2g4f2 z2 | 
[V:2] _B,GCG B,GCG A,GCE A,FCF | 
[V:1] z2 f2g2a2_b4^c2 z2 | 
[V:2] A,FCF A,FCF[K:clef=bass] G,E_B,E G,EB,E | 
[V:1] z2 e2f2g2_a4=B2 z2 | 
[V:2] G,E^CE G,ECE F,D_A,D F,DA,D | 
[V:1] z2 c4<g4^f2=f4- | 
[V:2] E,=CG,C _E,CG,C D,C=A,C B,,G,D,G, | 
[V:1] f2e2 !trill!_e3d/e/d4[d4f4b4]- | 
[V:2] C,CG,C ^F,CA,C .[G,B,]G,F,G, ^F,,G,,F,,G,, | 
[V:1] [d2f2b2][=e2c'2] [c2e2][A2^f2] {/ef}[B4g4][D4=F4B4]- | 
[V:2] G,,,4z4^F,G,F,G, ^F,,G,,F,,G,, | 
[V:1] [D2F2B2][E2c2] [C2E2][A,2^F2] {/EF}[G4B,4]z4 | 
[V:2] G,,,4z4z8 | 
[V:1] {/^F//}G4{/F//}G4{/E/G/^c/}e8- | 
[V:2] z8z A,,,^C,,E,, A,,^C,E,A, | 
[V:1] eGA^c ega^c' e'd'c'_b agfe | 
[V:2] A,,4z4[A,,4A,4]z2 [A,2^C2] | 
[V:1] gfef efgf {/E//}F4{/E//}F4 | 
[V:2] [D,4D4]z4z8 | 
[V:1] {/D/F/=B/}d8-dFG=B dfg=b | 
[V:2] z G,,=B,,D, G,=B,DGG,4z4 | 
[V:1] d'c'ba gfede4.g2.g2 | 
[V:2] [G,,4G,4]z2 [G,2B,2][K:clef=treble] CGEG CGEG | 
[V:1] a2>b2 d'c'ba g2 z2 gege | 
[V:2] CAFA CAFA CGEG CGEG | 
[V:1] a2>b2 d'c'ba g2 e'd' c'bag | 
[V:2] CAFA CAFA[C4E4]z2 ^c2 | 
[V:1] !trill!f2 {/ef} d'c' bagf !trill!e2 {/de} c'b agfe | 
[V:2] d4z2 B2=c4z2 A2 | 
[V:1] !trill!d2 {/^cd} ag fed=cB4.G2.G2 | 
[V:2] F4z2 ^F2 G,GFG[K:clef=bass] E,CB,C | 
[V:1] A2>B2 dcBA G2 z2 GEGE | 
[V:2] F,CB,C F,CB,C E,CB,C C,CB,C | 
[V:1] A2>B2 dcBA Gced cBAG | 
[V:2] F,CB,C F,CB,CE,4z2 ^C2 | 
[V:1] G^F.d.c .B.A.G.=F FE.c.B .A.G.F.E | 
[V:2] D4z2 B,2=C4z2 A,2 | 
[V:1] D2 z2 DFAdz4.E.G.B.e | 
[V:2] F,,A,,D,F,z4.G,,.B,,.E,.G,z4 | 
[V:1] z4FAcfz4.d'.bg.f | 
[V:2] A,,C,F,A,z4.B,,.D,.G,.B,z4 | 
[V:1] dBGFz4!mordent!cBce !mordent!dcdf | 
[V:2] z4DB,G,F, E,2G,2B,2G,2 | 
[V:1] !mordent!edeg !mordent!fefa gc'e'b c'gaf | 
[V:2] x12z2 D2 & C2G,2D2G,2E4x2 F,2 | 
[V:1] !trill!e2{/d/e/}d2 z gfed4!trill!e3d/e/ | 
[V:2] C2B,2z4[K:clef=treble]FcBc GcBc & G,4x4x8 | 
[V:1] f4>e4 .d2{/^c//}.d2.e2{/^d//}.e2 | 
[V:2] AcBc GcBc FcBc GcBc | 
[V:1] {/e/g/}f4>e4 {/^c//}d4z4 | 
[V:2] AcBc GcBc z2 [F2A2][E2^G2][F2A2] | 
[V:1] {/^g//}a4z4{/b//}c'4z4 | 
[V:2] z2 [F2A2][E2^G2][F2A2] z2 [F2A2][E2G2][F2A2] | 
[V:1] {/^g//} a2{/b//}c'2{/e//}f2{/^g//}a2 {/^c//} d2{/e//}f2{/^G//}A2{/B//}=c2 | 
[V:2] z16[K:clef=bass] | 
[V:1] {/=G/c/e/}g4fedc!trill!d8{/c/d/} | 
[V:2] G,ECE G,ECE G,FB,F G,FB,F[K:clef=treble] | 
[V:1] c2.c'.c' c'gec d2.d'.d' d'bgd | 
[V:2] CGEG C2 z2 B,GDG B,2 z2 | 
[V:1] e2.e'.e' e'c'ge ^ga.f.d ef.d.B | 
[V:2] CGEG C2 z2[K:clef=bass][F,4A,4D4][G,4D4F4] | 
[V:1] .cBcB c.G.E.C .D^cdc d.B.G.D | 
[V:2] [C2E2] z2 C,,C,B,,C, B,,2 z2 B,,B,A,B, | 
[V:1] .E^ded e.=c.G.E ^GA.F.=D EF.D.B, | 
[V:2] C2 z2 C,,C,B,,C,!arpeggio![F,,4A,,4D,4]!arpeggio![G,,4D,4F,4] | 
[V:1] .Cce.=d .c.B.A.=G .F.E.D.C .B,.A,.G,.^F, | 
[V:2] [C,4E,4]z4z8 | 
[V:1] =F,8-F,G,A,G, B,A,G,F, | 
[V:2] z4[D,,4D,4][B,,,4B,,4][G,,,4G,,4] | 
[V:1] [D,8F,8][C,E,] CB,C .G,G^FG | 
[V:2] C,,C,B,,C, B,,C,B,,C,C,,4z4 | 
[V:1] .EcBc .Gede .ccBc .e.c.g.e | 
[V:2] z16 | 
[V:1] c'4[e4g4c'4][e4g4c'4]z4 |]  
[V:2] C,CEC G,CE,G,C,4z4 |]  


